X: 1
T: The Foggy Dew
R: reel
M: 4/4
L: 1/8
K: Gmaj
EF |: G2GA B2gf | e2dB A2GA | BA BG EG FA |1 G6EF :|2 G6ef ||
g2gfe2fg | ag fed2B^d | e3f gf e^d | e6EF |
G2GA B2gf | e2dB A2GA | BA BG EG FA | G6 |]


Tune 6862	Setting 21432

